!!!COM: Beethoven, Ludwig van
!!!CDT: 1770///-1827///
!!!ODT: 1825///-1826///
!!!OTL: String Quartet No. 14 in C-sharp Minor, Op. 131
!!!OPS: Op. 131
!!!OMV: Mvmt. 3
!!!OMD: Allegro moderato - Adagio
!!!PDT: 1827///
!!!PPP: Mainz
!!!ODE: Dem Baron von Stutterheim gewidmet
!!!MPD: 1825///-1826///
**kern	**dynam	**kern	**dynam	**kern	**dynam	**kern	**dynam
*staff4	*staff4	*staff3	*staff3	*staff2	*staff2	*staff1	*staff1
*Icello	*Icello	*Iviola	*Iviola	*Ivioln	*Ivioln	*Ivioln	*Ivioln
*clefF4	*clefF4	*clefC3	*clefC3	*clefG2	*clefG2	*clefG2	*clefG2
*k[f#c#g#]	*k[f#c#g#]	*k[f#c#g#]	*k[f#c#g#]	*k[f#c#g#]	*k[f#c#g#]	*k[f#c#g#]	*k[f#c#g#]
*f#:	*f#:	*f#:	*f#:	*f#:	*f#:	*f#:	*f#:
*met(C)	*met(C)	*met(C)	*met(C)	*met(C)	*met(C)	*met(C)	*met(C)
*M4/4	*M4/4	*M4/4	*M4/4	*M4/4	*M4/4	*M4/4	*M4/4
*MM120	*MM120	*MM120	*MM120	*MM120	*MM120	*MM120	*MM120
=1-	=1-	=1-	=1-	=1-	=1-	=1-	=1-
4r	.	4r	.	4r	.	4r	.
4B'\	.	4d'\	.	4f#'/	.	4f#'/	.
4A#'\	f	4c#'\	f	4f#'/	f	4cc#'\	f
4r	.	4r	.	4r	.	4r	.
=2	=2	=2	=2	=2	=2	=2	=2
1r	.	1r	.	2r	.	8r	.
.	.	.	.	.	.	(16f#/LL	.
.	.	.	.	.	.	16g#/JJ)	p
.	.	.	.	.	.	8a#'/L	.
.	.	.	.	.	.	8b'/J	.
.	.	.	.	8r	.	4cc#\	.
.	.	.	.	(16c#/LL	p	.	.
.	.	.	.	16d/JJ)	.	.	.
.	.	.	.	8e'/L	.	4r	.
.	.	.	.	8f#'/J	.	.	.
=3	=3	=3	=3	=3	=3	=3	=3
2r	.	8r	.	4gn/	.	1r	.
.	.	8Gn'/L	p	.	.	.	.
.	.	8E'/	.	4r	.	.	.
.	.	8D'/J	.	.	.	.	.
8r	.	4C#'/	.	2r	.	.	.
8E'\L	p	.	.	.	.	.	.
8C#'\	.	4r	.	.	.	.	.
8F#'\J	.	.	.	.	.	.	.
=4	=4	=4	=4	=4	=4	=4	=4
4D'\	.	4r	.	4r	.	4r	.
4B'\	f	4d'\	f	4B'/	.	4f#'/	.
4BB'/	.	4F#'/	.	8f#'/L	f	4dd'\	f
.	.	.	.	(16d/L	p	.	.
.	.	.	.	16e/JJ)	.	.	.
4r	.	4r	.	8f#'/L	.	4r	.
.	.	.	.	8A#'/J	.	.	.
=5	=5	=5	=5	=5	=5	=5	=5
1r	.	1r	.	4B/	.	8r	.
.	.	.	.	.	.	(16b\LL	p
.	.	.	.	.	.	16cc#\JJ)	.
.	.	.	.	4r	.	8dd'\L	.
.	.	.	.	.	.	8ee'\J	.
.	.	.	.	8r	.	8ff#\	.
.	.	.	.	(16f#/LL	p	4r	.
.	.	.	.	16a#/JJ)	.	.	.
.	.	.	.	8b'/L	.	.	.
.	.	.	.	8f#'/J	.	8r	.
=6	=6	=6	=6	=6	=6	=6	=6
8r	.	2r	.	4d/	.	2r	.
(16B\LL	p	.	.	.	.	.	.
16c#\JJ)	.	.	.	.	.	.	.
8d'\L	.	.	.	4r	.	.	.
8F#'\J	.	.	.	.	.	.	.
8B\	.	8d'/L	p	8r	.	8r	.
*	*	*	*	*	*	*MM40	*MM40
8r	.	(16G#/L	.	8r	.	8r	.
.	.	16A/JJ)	.	.	.	.	.
4r	.	8B'/L	.	4r	.	4r	.
.	.	8D'/J	.	.	.	.	.
=7	=7	=7	=7	=7	=7	=7	=7
4r	.	(2.C#/	.	4r	.	4r	.
(4EE#/	.	.	.	(4g#/	.	(4b\	.
4FF#/	.	.	.	4c#/	.	4a/	.
4AA/)	.	4c#\)	.	4f#/)	.	8.ff#\L	.
.	.	.	.	.	.	16ee\Jk)	.
=8	=8	=8	=8	=8	=8	=8	=8
(4BB/	.	4F#/ 4A/	.	4B/ 4f#/	.	(8ee\L	.
.	.	.	.	.	.	[8dd#\J)	.
8BB/)	.	[4F#/ [4A/	.	8f#/ 8a/	.	(32dd#\LLL]	.
.	.	.	.	.	.	32cc#\	.
.	.	.	.	.	.	32b\	.
.	.	.	.	.	.	32cc#\	.
8r	.	.	.	8r	.	32dd#\	.
.	.	.	.	.	.	32cc#\	.
.	.	.	.	.	.	32dd#\	.
.	.	.	.	.	.	32ee\JJJ	.
2r	.	(2F#/] 2A/]	.	2r	.	32ff#\LLL	.
.	.	.	.	.	.	32ee\	.
.	.	.	.	.	.	32ff#\	.
.	.	.	.	.	.	32gg#\	.
.	.	.	.	.	.	32aa\	.
.	.	.	.	.	.	32bb\	.
.	.	.	.	.	.	32aa\	.
.	.	.	.	.	.	32gg#\JJJ	.
.	.	.	.	.	.	32ff#\LLL	.
.	.	.	.	.	.	32gg#\	.
.	.	.	.	.	.	32ff#\	.
.	.	.	.	.	.	32ee\	.
.	.	.	.	.	.	32dd#\	.
.	.	.	.	.	.	32ee\	.
.	.	.	.	.	.	32dd#\	.
.	.	.	.	.	.	32cc#\JJJ	.
=9	=9	=9	=9	=9	=9	=9	=9
2r	.	&([2F#/&)) [2A/	.	2r	.	32b/LLL	.
.	.	.	.	.	.	32cc#/	.
.	.	.	.	.	.	32b/	.
.	.	.	.	.	.	32b-/	.
.	.	.	.	.	.	32a/	.
.	.	.	.	.	.	32g#/	.
.	.	.	.	.	.	32f#/	.
.	.	.	.	.	.	32e/JJJ	.
.	.	.	.	.	.	32d#/LLL	.
.	.	.	.	.	.	32c#/	.
.	.	.	.	.	.	32Bn/	.
.	.	.	.	.	.	32d#/	.
.	.	.	.	.	.	32f#/	.
.	.	.	.	.	.	32a/	.
.	.	.	.	.	.	32bn/	.
.	.	.	.	.	.	32dd#/JJJ	.
8r	.	8F#/L] 8A/]	.	8r	.	32ff#\LLL	.
.	.	.	.	.	.	32aa\	.
.	.	.	.	.	.	32ccc#\	.
.	.	.	.	.	.	32bb\JJ)	.
(8AA/L	.	(8F#/	.	(8d#/L	.	(8bb\J	.
8GG#/	.	8B/)	.	8e/)	.	8bb\L)	.
8G#/J	.	(8B/J	.	[8e/J	.	&([8ee\J&)	.
=10	=10	=10	=10	=10	=10	=10	=10
8A\)	.	8c#\L)	.	8e/]	.	(8ee\L]	.
(4.A#\	f	[8e\J	f	[4.f#/	f	8cc#\	.
.	.	4.e\_	.	.	.	8dd#\	.
.	.	.	.	.	.	8ee\J)	.
(8A#\)	.	.	.	(8f#/L]	.	(8ee\	.
4.B\)	.	(8e\]	.	8g#/	.	[4.b\)	.
.	.	4d#\	.	8f#/	.	.	.
.	.	.	.	8f#/J 8a/	.	.	.
=11	=11	=11	=11	=11	=11	=11	=11
8E/L	p	8dn/L)	p	8g#/L)	p	8b\]	p
(8EE/J	.	8r	.	(8B/	.	4r	.
2FFn/	.	8r	.	8G#/	.	.	.
.	.	(8G#/J	.	8d/J	.	8r	.
.	.	8D/L	.	8B/L)	.	4r	.
.	.	8A/	.	8r	.	.	.
8EE/)	f	8G#/J) 8B/	f	8e/J 8ee/	f	8r	.
8r	.	8r	.	8r	.	8r	.
==	==	==	==	==	==	==	==
*-	*-	*-	*-	*-	*-	*-	*-
!!!ENC: Craig Stuart Sapp
!!!END: 2004/09/09/
